!!!OTL: In Festo S Mauri Abbatis
**kern
*staff1
=--
*clefG2
*k[]
1a
2cc
2dd
1ee
1ee
=-
2dd
2cc
1b
1a
1cc
=-
2b
2a
4b
4a
2b
1cc
1cc
=-
2cc
2b
2cc
2dd
0ee
=-
1cc
2ee
2dd
2cc
2b
1a
!!linebreak:original
=-
2.cc
4b
2a
2g
1a
2cc
2dd
=-
0ee
1dd
2cc
2dd
=-
!LO:TX:Y=-38:t=P
1ee
2ee
2dd
1cc
2cc
2dd
=-
!LO:TX:Y=-38:t=P
!LO:TX:Y=-38:t=P
1ee
0dd
1cc
=-
!LO:TX:Y=-35:t=P
1dd
2ee
2dd
2cc
2b
2cc
2dd
=-
1.ee
4dd
4cc
0dd
=-
!!linebreak:original
00r
=-
*clefC1
*k[b-]
*M3/1
1cc
2dd
2cc
2b-
2a
=-
!LO:TX:Y=-35:t=P
2g
2a
1a
2b-
2cc
=-
2dd
2cc
1b-
1cc
=-
!LO:TX:Y=-36:t=P
1dd
1b-
1cc
=-
1cc
0a
=-
!!linebreak:original
*k[]
1f
1g
1a
1g
=-
!LO:TX:Y=-33:t=P
1a
2g
2f
1e
1d
=-
!LO:TX:Y=-35:t=P
1f
1g
1a
1g
=-
!LO:TX:Y=-36:t=P
1a
2b
2cc
2dd
2b
2cc
2dd
=-
!LO:TX:Y=-37:t=P
0cc
0dd
=-
!!linebreak:original
1f
1g
1a
1g
=-
1a
2g
2f
1e
1d
=-
!LO:TX:Y=-36:t=P
!LO:TX:Y=-36:t=P
1f
1g
1a
1g
=-
1a
2b
2cc
2dd
2b
2cc
2dd
=-
0cc
0dd
=-=
*-
!!title: @{OTL}, @{GTL}, ed. @{ENC}
!!!pag:
!!!GTL: Hymnbook C
!!!EFL: 
!!!YEM: Creative Commons CC/BY/NC/SA 4.0
!!!ENC: Marcin Konik
!!!END: 2015-0m-dd
!!!EED: Marcin Konik
!!!EEV: 
!!!ONB: Encoded in vim by Marcin Konik
!!!CharacterEncoding: utf-8
!!!RDF**kern: l=long note in original notation
!!!RDF**kern: i=editorial accidental
!!muse2ps: z14jc180F
!!!COM: Anonim
!!!CDT: [?]
!!!TXO: Polish
!!!ODT: 
!!!GTL: Hymnbook C
!!!ARL: Opactwo św. Wojciecha, Staniątki 
!!!voices:	1
